images/step-2.svg

<svg width="80" height="80" viewBox="0 0 80 80" fill="none" xmlns="http://www.w3.org/2000/svg">
<g clip-path="url(#clip0_2031_18)">
<path d="M46.6663 26.6673H15.5552C14.9659 26.6673 14.4006 26.4332 13.9839 26.0164C13.5671 25.5997 13.333 25.0345 13.333 24.4451V15.5562C13.333 14.9668 13.5671 14.4016 13.9839 13.9849C14.4006 13.5681 14.9659 13.334 15.5552 13.334H46.6663C47.2557 13.334 47.8209 13.5681 48.2377 13.9849C48.6544 14.4016 48.8886 14.9668 48.8886 15.5562V24.4451C48.8886 25.0345 48.6544 25.5997 48.2377 26.0164C47.8209 26.4332 47.2557 26.6673 46.6663 26.6673ZM17.7775 22.2229H44.4441V17.6451H17.7775V22.2229Z" fill="#1B756B"/>
<path d="M46.6663 31.2891H15.5552C14.9659 31.2891 14.4006 31.5232 13.9839 31.9399C13.5671 32.3567 13.333 32.9219 13.333 33.5113V42.2224C13.333 42.8118 13.5671 43.377 13.9839 43.7937C14.4006 44.2105 14.9659 44.4446 15.5552 44.4446H40.7997L48.8886 36.2224V33.5113C48.8886 32.9219 48.6544 32.3567 48.2377 31.9399C47.8209 31.5232 47.2557 31.2891 46.6663 31.2891ZM44.4441 40.0002H17.7775V35.5557H44.4441V40.0002Z" fill="#1B756B"/>
<path d="M24.5777 70.0231V69.8898L25.2888 66.8009H8.88878V8.88976H53.3332V31.6675L57.7777 27.4675V6.66753C57.7777 6.07816 57.5435 5.51293 57.1268 5.09619C56.7101 4.67944 56.1448 4.44531 55.5554 4.44531H6.66656C6.07719 4.44531 5.51196 4.67944 5.09521 5.09619C4.67846 5.51293 4.44434 6.07816 4.44434 6.66753V68.8898C4.44434 69.4791 4.67846 70.0444 5.09521 70.4611C5.51196 70.8779 6.07719 71.112 6.66656 71.112H24.4443C24.4623 70.7463 24.5069 70.3823 24.5777 70.0231Z" fill="#1B756B"/>
<path d="M48.8886 42.5996L47.1553 44.3552C47.5853 44.2665 47.9794 44.0525 48.2879 43.74C48.5964 43.4276 48.8054 43.0307 48.8886 42.5996Z" fill="#1B756B"/>
<path d="M13.333 59.8665C13.333 60.4558 13.5671 61.021 13.9839 61.4378C14.4006 61.8545 14.9659 62.0887 15.5552 62.0887H26.3108L26.9775 59.1998L27.2663 57.9776V57.8665H17.7775V53.3331H31.8663L36.3108 48.8887H15.5552C14.9659 48.8887 14.4006 49.1228 13.9839 49.5395C13.5671 49.9563 13.333 50.5215 13.333 51.1109V59.8665Z" fill="#1B756B"/>
<path d="M74.4219 37.0442L66.933 29.5553C66.6006 29.222 66.2058 28.9576 65.7711 28.7772C65.3363 28.5968 64.8703 28.5039 64.3996 28.5039C63.929 28.5039 63.4629 28.5968 63.0282 28.7772C62.5935 28.9576 62.1987 29.222 61.8663 29.5553L31.3996 60.1997L28.8885 70.8886C28.7945 71.3497 28.7924 71.8249 28.8823 72.2869C28.9722 72.7488 29.1524 73.1885 29.4125 73.5807C29.6726 73.9729 30.0075 74.3099 30.3981 74.5725C30.7886 74.8351 31.2271 75.018 31.6885 75.1108C31.9176 75.1331 32.1483 75.1331 32.3774 75.1108C32.6498 75.1533 32.9272 75.1533 33.1996 75.1108L43.9774 72.7331L74.4219 42.2219C74.7544 41.8915 75.0184 41.4985 75.1985 41.0657C75.3786 40.6328 75.4713 40.1686 75.4713 39.6997C75.4713 39.2309 75.3786 38.7667 75.1985 38.3338C75.0184 37.9009 74.7544 37.508 74.4219 37.1775V37.0442ZM41.7107 68.6886L33.5774 70.4886L35.5552 62.4219L58.3996 39.3331L64.6663 45.5997L41.7107 68.6886ZM67.1774 43.0886L60.9107 36.8219L64.4441 33.3331L70.7552 39.6442L67.1774 43.0886Z" fill="#1B756B"/>
</g>
<defs>
<clipPath id="clip0_2031_18">
<rect width="80" height="80" fill="white"/>
</clipPath>
</defs>
</svg>

<?xml version="1.0" encoding="UTF-8"?>
<svg id="Layer_1" xmlns="http://www.w3.org/2000/svg" xmlns:xlink="http://www.w3.org/1999/xlink" version="1.1" viewBox="0 0 80 80">
  <!-- Generator: Adobe Illustrator 30.0.0, SVG Export Plug-In . SVG Version: 2.1.1 Build 123)  -->
  <defs>
    <style>
      .st0 {
        fill: url(#linear-gradient2);
      }

      .st1 {
        fill: url(#linear-gradient1);
      }

      .st2 {
        fill: url(#linear-gradient3);
      }

      .st3 {
        fill: url(#linear-gradient6);
      }

      .st4 {
        fill: url(#linear-gradient5);
      }

      .st5 {
        fill: url(#linear-gradient4);
      }

      .st6 {
        fill: url(#linear-gradient);
      }
    </style>
    <linearGradient id="linear-gradient" x1="38.04" y1="8.01" x2="24.19" y2="31.99" gradientUnits="userSpaceOnUse">
      <stop offset="0" stop-color="#1b756b"/>
      <stop offset="1" stop-color="#000"/>
    </linearGradient>
    <linearGradient id="linear-gradient1" x1="36.57" y1="25.12" x2="22.8" y2="48.97" xlink:href="#linear-gradient"/>
    <linearGradient id="linear-gradient2" x1="42.71" y1="-3.32" x2="1.32" y2="68.37" xlink:href="#linear-gradient"/>
    <linearGradient id="linear-gradient3" x1="48.67" y1="42.47" x2="47.48" y2="44.54" xlink:href="#linear-gradient"/>
    <linearGradient id="linear-gradient4" x1="28.05" y1="44.12" x2="16.99" y2="63.26" xlink:href="#linear-gradient"/>
    <linearGradient id="linear-gradient5" x1="65.91" y1="28.82" x2="37.22" y2="78.52" xlink:href="#linear-gradient"/>
    <linearGradient id="linear-gradient6" x1="-96.47" y1="-77.03" x2="-238.53" y2="169.03" gradientUnits="userSpaceOnUse">
      <stop offset="0" stop-color="#1b756b"/>
      <stop offset="1" stop-color="#005561"/>
    </linearGradient>
  </defs>
  <g id="Layer_8">
    <path class="st6" d="M46.67,26.67H15.56c-.59,0-1.15-.23-1.57-.65-.42-.42-.65-.98-.65-1.57v-8.89c0-.59.23-1.15.65-1.57.42-.42.98-.65,1.57-.65h31.11c.59,0,1.15.23,1.57.65.42.42.65.98.65,1.57v8.89c0,.59-.23,1.15-.65,1.57s-.98.65-1.57.65ZM17.78,22.22h26.67v-4.58h-26.67v4.58Z"/>
  </g>
  <g id="Layer_7">
    <path class="st1" d="M46.67,31.29H15.56c-.59,0-1.15.23-1.57.65-.42.42-.65.98-.65,1.57v8.71c0,.59.23,1.15.65,1.57.42.42.98.65,1.57.65h25.24l8.09-8.22v-2.71c0-.59-.23-1.15-.65-1.57-.42-.42-.98-.65-1.57-.65ZM44.44,40h-26.67v-4.44h26.67v4.44Z"/>
  </g>
  <g id="Layer_6">
    <path class="st0" d="M24.58,70.02v-.13l.71-3.09H8.89V8.89h44.44v22.78l4.44-4.2V6.67c0-.59-.23-1.15-.65-1.57-.42-.42-.98-.65-1.57-.65H6.67c-.59,0-1.15.23-1.57.65-.42.42-.65.98-.65,1.57v62.22c0,.59.23,1.15.65,1.57.42.42.98.65,1.57.65h17.78c.02-.37.06-.73.13-1.09Z"/>
  </g>
  <g id="Layer_5">
    <path class="st2" d="M48.89,42.6l-1.73,1.76c.43-.09.82-.3,1.13-.62.31-.31.52-.71.6-1.14Z"/>
  </g>
  <g id="Layer_4">
    <path class="st5" d="M13.33,59.87c0,.59.23,1.15.65,1.57.42.42.98.65,1.57.65h10.76l.67-2.89.29-1.22v-.11h-9.49v-4.53h14.09l4.44-4.44H15.56c-.59,0-1.15.23-1.57.65-.42.42-.65.98-.65,1.57v8.76Z"/>
  </g>
  <g id="Layer_3">
    <path class="st4" d="M74.42,37.04l-7.49-7.49c-.33-.33-.73-.6-1.16-.78-.43-.18-.9-.27-1.37-.27s-.94.09-1.37.27c-.43.18-.83.44-1.16.78l-30.47,30.64-2.51,10.69c-.09.46-.1.94,0,1.4.09.46.27.9.53,1.29.26.39.59.73.99.99.39.26.83.45,1.29.54.23.02.46.02.69,0,.27.04.55.04.82,0l10.78-2.38,30.44-30.51c.33-.33.6-.72.78-1.16.18-.43.27-.9.27-1.37s-.09-.93-.27-1.37-.44-.83-.78-1.16v-.13ZM41.71,68.69l-8.13,1.8,1.98-8.07,22.84-23.09,6.27,6.27-22.96,23.09ZM67.18,43.09l-6.27-6.27,3.53-3.49,6.31,6.31-3.58,3.44Z"/>
  </g>
  <rect class="st3" x="-271.5" y="-58" width="208" height="208"/>
</svg>
